Origami/64x64/apps/document-viewer.svg

<svg width="64" height="64" version="1" xmlns="http://www.w3.org/2000/svg">
 <path d="m10 55v2c0 1.662 1.338 3 3 3h38c1.662 0 3-1.338 3-3v-2c0 1.662-1.338 3-3 3h-38c-1.662 0-3-1.338-3-3z" style="opacity:.2"/>
 <path d="m54 56v-50c0-1.662-1.338-3-3-3h-38c-1.662 0-3 1.338-3 3v50c0 1.662 1.338 3 3 3h38c1.662 0 3-1.338 3-3z" style="fill:#cccccc"/>
 <path d="M 63.958,45.848 A 16,16 0 0 1 48,61 16,16 0 0 1 32.042,46.152 16,16 0 0 0 32,47 16,16 0 0 0 48,63 16,16 0 0 0 64,47 16,16 0 0 0 63.95704,45.84766 Z" style="fill-rule:evenodd;opacity:.2"/>
 <circle cx="48" cy="46" r="16" style="fill-rule:evenodd;fill:#c03630"/>
 <path d="m48 40c-1.93854 0.01824-3.889525 0.444658-5.578125 1.363281-0.67302 0.420809-1.480984 0.964124-2.089844 1.511719-0.958 0.900404-1.778031 1.950092-2.332031 3.126953 1.51868 3.215919 4.856497 5.573617 8.529297 5.921875 2.4092 0.261789 4.931028-0.138846 7.048828-1.283203 0.673-0.420809 1.480984-0.964123 2.089844-1.511719 0.958-0.902323 1.778031-1.952012 2.332031-3.126953-1.518-3.215728-4.857297-5.574384-8.529297-5.921875-0.488-0.05568-0.980703-0.080078-1.470703-0.080078zm0.003906 2c2.139701-0.0474 4.034404 1.867621 3.994141 3.996094 0.06857 2.352448-2.274639 4.382659-4.591797 3.943359-2.340165-0.274786-3.984532-2.901019-3.214844-5.125 0.492105-1.636189 2.099539-2.831675 3.814453-2.8125l-0.001953-0.001953zm-0.003906 1.996094a1.9999991 2.0004471 0 0 0 -2 2.003906 1.9999991 2.0004471 0 0 0 2 2 1.9999991 2.0004471 0 0 0 2 -2 1.9999991 2.0004471 0 0 0 -2 -1.996094v-0.007812z" style="fill-rule:evenodd;fill:#ffffff"/>
 <path d="m13 3c-1.662 0-3 1.338-3 3v1c0-1.662 1.338-3 3-3h38c1.662 0 3 1.338 3 3v-1c0-1.662-1.338-3-3-3h-38z" style="fill:#ffffff;opacity:.1"/>
</svg>

<svg xmlns="http://www.w3.org/2000/svg" width="64" height="64" version="1">
 <path style="opacity:0.2" d="m 10,55 0,2 c 0,1.662 1.338,3 3,3 l 38,0 c 1.662,0 3,-1.338 3,-3 l 0,-2 c 0,1.662 -1.338,3 -3,3 l -38,0 c -1.662,0 -3,-1.338 -3,-3 z"/>
 <path style="fill:#cccccc" d="M 54,56 54,6 C 54,4.338 52.662,3 51,3 L 13,3 c -1.662,0 -3,1.338 -3,3 l 0,50 c 0,1.662 1.338,3 3,3 l 38,0 c 1.662,0 3,-1.338 3,-3 z"/>
 <path style="opacity:0.2;fill-rule:evenodd" d="M 63.958,45.848 A 16,16 0 0 1 48,61 16,16 0 0 1 32.042,46.152 16,16 0 0 0 32,47 16,16 0 0 0 48,63 16,16 0 0 0 64,47 16,16 0 0 0 63.95704,45.84766 Z"/>
 <circle style="fill:#c03630;fill-rule:evenodd" cx="48" cy="46" r="16"/>
 <path style="fill:#ffffff;fill-rule:evenodd" d="M 48 40 C 46.06146 40.01824 44.110475 40.444658 42.421875 41.363281 C 41.748855 41.78409 40.940891 42.327405 40.332031 42.875 C 39.374031 43.775404 38.554 44.825092 38 46.001953 C 39.51868 49.217872 42.856497 51.57557 46.529297 51.923828 C 48.938497 52.185617 51.460325 51.784982 53.578125 50.640625 C 54.251125 50.219816 55.059109 49.676502 55.667969 49.128906 C 56.625969 48.226583 57.446 47.176894 58 46.001953 C 56.482 42.786225 53.142703 40.427569 49.470703 40.080078 C 48.982703 40.024398 48.49 40 48 40 z M 48.003906 42 C 50.143607 41.9526 52.03831 43.867621 51.998047 45.996094 C 52.066617 48.348542 49.723408 50.378753 47.40625 49.939453 C 45.066085 49.664667 43.421718 47.038434 44.191406 44.814453 C 44.683511 43.178264 46.290945 41.982778 48.005859 42.001953 L 48.003906 42 z M 48 43.996094 A 1.9999991 2.0004471 0 0 0 46 46 A 1.9999991 2.0004471 0 0 0 48 48 A 1.9999991 2.0004471 0 0 0 50 46 A 1.9999991 2.0004471 0 0 0 48 44.003906 L 48 43.996094 z"/>
 <path style="opacity:0.1;fill:#ffffff" d="M 13 3 C 11.338 3 10 4.338 10 6 L 10 7 C 10 5.338 11.338 4 13 4 L 51 4 C 52.662 4 54 5.338 54 7 L 54 6 C 54 4.338 52.662 3 51 3 L 13 3 z"/>
</svg>
